X: 145122
T: JACK'S DELIGHT
Q: "Hornpipe."
R: Hornpipe.
%R: hornpipe, reel
B: James Kerr "Merry Melodies" v.1 p.45 s.1 #22
Z: 2016 John Chambers <jc:trillian.mit.edu>
N: The last bar has quarter notes; changed to 16th-notes.
M: 2/4
L: 1/16
K: D
uA2 |\
d2d2 cecA | d2fd A2ef |\
g2gf e2ed | cedB ABcA |\
d2d2 cecA | d2fd A2ef |\
gfge cABc | d2z2 d2 |]
(uAG) |\
FAFA dAFA | AGFG E2F2 |\
GBGB edcd | cAB^G ABA=G |\
FAFA dAFA | GBGB dBGB |\
cged cABc | d2f2d2 |]

%%sep 1 1 500
%%sep 1 1 500

